X:33
T: WELE GROSS WUNDER SCHAUEN WILL
N: E0018
O: Europa, Mitteleuropa, Schweiz, Entlibuch, Escholdsmatt
R: Maerchen -, Zauber - Lied, Tannhaeuser - Sage
M: 3/4
L: 1/8
K: C
G, | CB,C2D2 | B,^F,G,3
C | FGFEC2 | C2D2z
C | EFG3C | DEF3
D | ECD2C2 | B,2C2z

@@@ Tune index: 3683
